svg/sql.svg

<?xml version="1.0" encoding="UTF-8"?>
<svg xmlns="http://www.w3.org/2000/svg" xmlns:xlink="http://www.w3.org/1999/xlink" width="32" height="32" viewBox="0 0 32 32">
<path fill-rule="nonzero" fill="rgb(0%, 0%, 0%)" fill-opacity="1" d="M 16.117188 23.363281 C 14.945312 23.363281 14.265625 24.515625 14.265625 25.9375 C 14.253906 27.382812 14.953125 28.488281 16.105469 28.488281 C 17.269531 28.488281 17.949219 27.394531 17.949219 25.902344 C 17.949219 24.515625 17.292969 23.363281 16.117188 23.363281 M 27.601562 7.667969 C 27.605469 7.519531 27.550781 7.375 27.453125 7.261719 L 21.28125 0.214844 C 21.28125 0.210938 21.277344 0.210938 21.277344 0.210938 C 21.242188 0.167969 21.199219 0.132812 21.152344 0.105469 L 21.113281 0.0820312 C 21.074219 0.0585938 21.03125 0.0429688 20.988281 0.0273438 C 20.976562 0.0273438 20.964844 0.0195312 20.953125 0.0195312 C 20.90625 0.0078125 20.859375 0 20.8125 0 L 5.648438 0 C 4.957031 0 4.390625 0.5625 4.390625 1.253906 L 4.390625 30.746094 C 4.390625 31.4375 4.957031 32 5.648438 32 L 26.351562 32 C 27.042969 32 27.609375 31.4375 27.609375 30.746094 L 27.609375 7.738281 C 27.609375 7.714844 27.605469 7.691406 27.601562 7.667969 M 8.5625 29.84375 C 7.691406 29.84375 6.835938 29.617188 6.40625 29.378906 L 6.753906 27.957031 C 7.21875 28.195312 7.929688 28.433594 8.664062 28.433594 C 9.453125 28.433594 9.871094 28.105469 9.871094 27.609375 C 9.871094 27.132812 9.511719 26.863281 8.597656 26.535156 C 7.332031 26.09375 6.507812 25.394531 6.507812 24.289062 C 6.507812 22.988281 7.589844 21.996094 9.386719 21.996094 C 10.246094 21.996094 10.878906 22.175781 11.328125 22.378906 L 10.945312 23.769531 C 10.449219 23.527344 9.902344 23.402344 9.351562 23.40625 C 8.605469 23.40625 8.246094 23.746094 8.246094 24.140625 C 8.246094 24.625 8.675781 24.839844 9.65625 25.214844 C 11 25.710938 11.632812 26.410156 11.632812 27.484375 C 11.632812 28.757812 10.652344 29.84375 8.5625 29.84375 M 19.300781 31.039062 C 18.277344 30.742188 17.273438 30.386719 16.296875 29.96875 C 16.128906 29.902344 15.949219 29.863281 15.769531 29.855469 C 14.050781 29.742188 12.449219 28.476562 12.449219 25.992188 C 12.449219 23.710938 13.894531 21.996094 16.164062 21.996094 C 18.488281 21.996094 19.765625 23.757812 19.765625 25.835938 C 19.765625 27.5625 18.964844 28.78125 17.957031 29.234375 L 17.957031 29.277344 C 18.546875 29.449219 19.199219 29.585938 19.800781 29.707031 Z M 25.648438 29.730469 L 20.894531 29.730469 L 20.894531 22.121094 L 22.625 22.121094 L 22.625 28.285156 L 25.648438 28.285156 Z M 5.648438 21.308594 L 5.648438 1.253906 L 20.183594 1.253906 L 20.183594 7.675781 C 20.183594 8.023438 20.464844 8.304688 20.8125 8.304688 L 26.351562 8.304688 L 26.355469 21.308594 Z M 19.410156 9.945312 C 19.4375 9.867188 19.453125 9.789062 19.457031 9.707031 C 19.457031 8.699219 17.277344 8.152344 15.222656 8.152344 C 13.167969 8.152344 10.988281 8.699219 10.988281 9.707031 C 10.988281 9.789062 11.007812 9.867188 11.035156 9.945312 L 11.023438 9.964844 C 10.929688 10.136719 10.882812 10.308594 10.882812 10.476562 L 10.882812 11.726562 C 10.882812 11.917969 10.945312 12.101562 11.050781 12.277344 L 11.039062 12.300781 C 10.933594 12.480469 10.882812 12.660156 10.882812 12.835938 L 10.882812 14.085938 C 10.882812 14.273438 10.941406 14.453125 11.042969 14.621094 L 11.039062 14.628906 C 10.9375 14.789062 10.886719 14.976562 10.882812 15.164062 L 10.882812 16.414062 C 10.882812 17.523438 12.789062 18.394531 15.222656 18.394531 C 17.65625 18.394531 19.5625 17.523438 19.5625 16.414062 L 19.5625 15.164062 C 19.5625 14.984375 19.511719 14.804688 19.40625 14.628906 L 19.402344 14.621094 C 19.503906 14.460938 19.558594 14.277344 19.5625 14.085938 L 19.5625 12.835938 C 19.5625 12.660156 19.511719 12.476562 19.40625 12.300781 L 19.394531 12.277344 C 19.5 12.101562 19.5625 11.917969 19.5625 11.726562 L 19.5625 10.476562 C 19.5625 10.304688 19.515625 10.132812 19.421875 9.964844 Z M 19.097656 16.414062 C 19.097656 17.128906 17.507812 17.929688 15.222656 17.929688 C 12.9375 17.929688 11.347656 17.128906 11.347656 16.414062 L 11.347656 15.238281 C 12.058594 15.890625 13.527344 16.304688 15.222656 16.304688 C 16.917969 16.304688 18.386719 15.890625 19.097656 15.238281 Z M 19.097656 14.085938 C 19.097656 14.804688 17.507812 15.601562 15.222656 15.601562 C 12.9375 15.601562 11.347656 14.804688 11.347656 14.085938 L 11.347656 12.910156 C 12.058594 13.5625 13.527344 13.980469 15.222656 13.980469 C 16.917969 13.980469 18.386719 13.5625 19.097656 12.910156 Z M 19.097656 11.726562 C 19.097656 12.441406 17.507812 13.242188 15.222656 13.242188 C 12.9375 13.242188 11.347656 12.441406 11.347656 11.726562 L 11.347656 10.683594 C 12.042969 11.277344 13.660156 11.582031 15.222656 11.582031 C 16.785156 11.582031 18.402344 11.277344 19.097656 10.683594 Z M 19.097656 11.726562 "/>
</svg>

<svg role="img" viewBox="0 0 32 32" xmlns="http://www.w3.org/2000/svg"><path d="M16.117 23.363c-1.172 0-1.851 1.153-1.851 2.575-.012 1.445.687 2.55 1.84 2.55 1.164 0 1.843-1.093 1.843-2.586 0-1.386-.656-2.539-1.832-2.539M27.602 7.668a.6.6 0 0 0-.149-.406L21.281.215Q21.28.21 21.277.21a.5.5 0 0 0-.125-.106l-.039-.023q-.06-.033-.125-.055c-.011 0-.023-.007-.035-.007a.6.6 0 0 0-.14-.02H5.648c-.691 0-1.257.563-1.257 1.254v29.492c0 .692.566 1.254 1.257 1.254h20.704c.691 0 1.257-.562 1.257-1.254V7.738a.4.4 0 0 0-.007-.07M8.562 29.844c-.87 0-1.726-.227-2.156-.465l.348-1.422c.465.238 1.176.477 1.91.477.79 0 1.207-.329 1.207-.825 0-.476-.36-.746-1.273-1.074-1.266-.441-2.09-1.14-2.09-2.246 0-1.3 1.082-2.293 2.879-2.293.86 0 1.492.18 1.941.383l-.383 1.39a3.6 3.6 0 0 0-1.593-.363c-.747 0-1.106.34-1.106.735 0 .484.43.699 1.41 1.074 1.344.496 1.977 1.195 1.977 2.27 0 1.273-.98 2.359-3.07 2.359M19.3 31.039a26 26 0 0 1-3.004-1.07 1.6 1.6 0 0 0-.527-.114c-1.72-.113-3.32-1.378-3.32-3.863 0-2.281 1.445-3.996 3.714-3.996 2.324 0 3.602 1.762 3.602 3.84 0 1.727-.801 2.945-1.809 3.398v.043c.59.172 1.242.309 1.844.43Zm6.347-1.309h-4.753v-7.609h1.73v6.164h3.023Zm-20-8.421V1.254h14.536v6.422c0 .347.28.629.628.629h5.54l.003 13.004ZM19.41 9.945a.8.8 0 0 0 .047-.238c0-1.008-2.18-1.555-4.234-1.555-2.055 0-4.235.547-4.235 1.555 0 .082.02.16.047.238l-.012.02q-.14.259-.14.512v1.25c0 .191.062.375.168.55l-.012.024q-.157.271-.156.535v1.25c0 .187.058.367.16.535l-.004.008a1.04 1.04 0 0 0-.156.535v1.25c0 1.11 1.906 1.98 4.34 1.98 2.433 0 4.34-.87 4.34-1.98v-1.25q.001-.271-.157-.535l-.004-.008c.102-.16.157-.344.16-.535v-1.25c0-.176-.05-.36-.156-.535l-.011-.024c.105-.175.168-.359.168-.55v-1.25q0-.259-.141-.512Zm-.312 6.47c0 .714-1.59 1.515-3.875 1.515s-3.875-.801-3.875-1.516v-1.176c.71.653 2.18 1.067 3.875 1.067s3.164-.414 3.875-1.067Zm0-2.33c0 .72-1.59 1.517-3.875 1.517s-3.875-.797-3.875-1.516V12.91c.71.652 2.18 1.07 3.875 1.07s3.164-.418 3.875-1.07Zm0-2.358c0 .714-1.59 1.515-3.875 1.515s-3.875-.8-3.875-1.515v-1.043c.695.593 2.312.898 3.875.898 1.562 0 3.18-.305 3.875-.898Zm0 0" fill="rgb(0%, 0%, 0%)"/></svg>
